assets/Id button/Flat/id_button_flat.svg

<svg width="32" height="32" viewBox="0 0 32 32" fill="none" xmlns="http://www.w3.org/2000/svg">
<path d="M2 6C2 3.79086 3.79086 2 6 2H26C28.2091 2 30 3.79086 30 6V26C30 28.2091 28.2091 30 26 30H6C3.79086 30 2 28.2091 2 26V6Z" fill="#8D65C5"/>
<path d="M14.3812 7.7876C13.6218 7.7876 13.0062 8.40321 13.0062 9.1626V22.7516C13.0062 23.511 13.6218 24.1266 14.3812 24.1266H17.6857C22.237 24.1266 25.964 20.4895 25.964 15.9571C25.964 11.4247 22.237 7.7876 17.6857 7.7876H14.3812ZM15.8812 21.3766C15.8122 21.3766 15.7562 21.3206 15.7562 21.2516V10.6626C15.7562 10.5936 15.8122 10.5376 15.8812 10.5376H17.6857C20.7596 10.5376 23.214 12.9845 23.214 15.9571C23.214 18.9297 20.7596 21.3766 17.6857 21.3766H15.8812Z" fill="white"/>
<path d="M10.7618 9.26273C10.761 8.50334 10.1447 7.8884 9.38535 7.88922C8.62596 7.89005 8.01102 8.50632 8.01184 9.26571L8.02635 22.6515C8.02717 23.4108 8.64345 24.0258 9.40284 24.025C10.1622 24.0241 10.7772 23.4079 10.7764 22.6485L10.7618 9.26273Z" fill="white"/>
</svg>

<svg xmlns="http://www.w3.org/2000/svg" width="32" height="32" fill="none"><path fill="#8D65C5" d="M2 6a4 4 0 0 1 4-4h20a4 4 0 0 1 4 4v20a4 4 0 0 1-4 4H6a4 4 0 0 1-4-4V6Z"/><path fill="#fff" d="M14.381 7.788c-.76 0-1.375.615-1.375 1.375v13.589c0 .759.616 1.375 1.375 1.375h3.305c4.551 0 8.278-3.637 8.278-8.17 0-4.532-3.727-8.17-8.278-8.17H14.38Zm1.5 13.589a.125.125 0 0 1-.125-.125v-10.59c0-.068.056-.124.125-.124h1.805c3.074 0 5.528 2.447 5.528 5.42 0 2.972-2.454 5.419-5.528 5.419H15.88ZM10.762 9.263a1.375 1.375 0 1 0-2.75.003l.014 13.385a1.375 1.375 0 0 0 2.75-.003l-.014-13.385Z"/></svg>
